icons/svg/icons8/warning_shield.svg

<svg width="26" height="26" viewBox="0 0 26 26" fill="none" xmlns="http://www.w3.org/2000/svg">
<path d="M23.6331 5.028C23.4331 4.801 23.1521 4.67 22.8561 4.662C20.5611 4.602 17.6571 2.148 15.7371 1.185C14.5511 0.592 13.7681 0.201 13.1801 0.0979996C13.1191 0.0899996 13.0601 0.0839996 13.0001 0.0839996C12.9401 0.0839996 12.8811 0.0899996 12.8201 0.0989996C12.2321 0.202 11.4491 0.593 10.2641 1.186C8.34413 2.148 5.44013 4.603 3.14513 4.662C2.84913 4.67 2.56713 4.802 2.36713 5.028C2.16513 5.254 2.06113 5.555 2.07613 5.862C2.56913 15.885 6.16413 22.088 12.4721 25.693C12.6361 25.786 12.8181 25.834 12.9991 25.834C13.1801 25.834 13.3621 25.786 13.5271 25.693C19.8351 22.088 23.4291 15.885 23.9231 5.862C23.9391 5.555 23.8351 5.254 23.6331 5.028ZM11.8251 6.336C11.8481 6.312 11.8811 6.298 11.9141 6.298H13.9801C14.0131 6.298 14.0451 6.312 14.0691 6.335C14.0921 6.359 14.1051 6.392 14.1051 6.425L13.9371 15.32C13.9361 15.388 13.8801 15.443 13.8121 15.443H12.1421C12.0751 15.443 12.0191 15.389 12.0171 15.321L11.7881 6.426C11.7891 6.393 11.8021 6.359 11.8251 6.336ZM13.9721 18.957C13.7001 19.203 13.3741 19.327 13.0041 19.327C12.6231 19.327 12.2931 19.202 12.0241 18.957C11.7531 18.707 11.6141 18.399 11.6141 18.042C11.6141 17.674 11.7521 17.356 12.0221 17.099C12.2921 16.843 12.6221 16.713 13.0041 16.713C13.3751 16.713 13.7011 16.843 13.9731 17.099C14.2481 17.357 14.3871 17.674 14.3871 18.042C14.3871 18.399 14.2461 18.708 13.9721 18.957Z" fill="#333333"/>
</svg>

<?xml version="1.0" encoding="utf-8"?>
<!-- Generator: Adobe Illustrator 15.0.0, SVG Export Plug-In . SVG Version: 6.00 Build 0)  -->
<!DOCTYPE svg PUBLIC "-//W3C//DTD SVG 1.1//EN" "http://www.w3.org/Graphics/SVG/1.1/DTD/svg11.dtd">
<svg version="1.1" id="Layer_1" xmlns="http://www.w3.org/2000/svg" xmlns:xlink="http://www.w3.org/1999/xlink" x="0px" y="0px"
	 width="26px" height="26px" viewBox="0 0 26 26" enable-background="new 0 0 26 26" xml:space="preserve">
<rect fill="none" width="26" height="26"/>
<path fill="#333333" d="M23.633,5.028c-0.2-0.227-0.481-0.358-0.777-0.366c-2.295-0.06-5.199-2.514-7.119-3.477
	c-1.186-0.593-1.969-0.984-2.557-1.087C13.119,0.09,13.06,0.084,13,0.084s-0.119,0.006-0.18,0.015
	c-0.588,0.103-1.371,0.494-2.556,1.087C8.344,2.148,5.44,4.603,3.145,4.662C2.849,4.67,2.567,4.802,2.367,5.028
	C2.165,5.254,2.061,5.555,2.076,5.862c0.493,10.023,4.088,16.226,10.396,19.831c0.164,0.093,0.346,0.141,0.527,0.141
	s0.363-0.048,0.528-0.141c6.308-3.605,9.902-9.808,10.396-19.831C23.939,5.555,23.835,5.254,23.633,5.028z M11.825,6.336
	c0.023-0.024,0.056-0.038,0.089-0.038h2.066c0.033,0,0.065,0.014,0.089,0.037c0.023,0.024,0.036,0.057,0.036,0.09l-0.168,8.895
	c-0.001,0.068-0.057,0.123-0.125,0.123h-1.67c-0.067,0-0.123-0.054-0.125-0.122l-0.229-8.895
	C11.789,6.393,11.802,6.359,11.825,6.336z M13.972,18.957c-0.272,0.246-0.598,0.37-0.968,0.37c-0.381,0-0.711-0.125-0.98-0.37
	c-0.271-0.25-0.41-0.558-0.41-0.915c0-0.368,0.138-0.686,0.408-0.943c0.27-0.256,0.6-0.386,0.982-0.386
	c0.371,0,0.697,0.13,0.969,0.386c0.275,0.258,0.414,0.575,0.414,0.943C14.387,18.399,14.246,18.708,13.972,18.957z"/>
</svg>
